rendering_styles/style-icons/map-icons-svg/mx_wool.svg

<?xml version="1.0" encoding="UTF-8"?>
<svg xmlns="http://www.w3.org/2000/svg" xmlns:xlink="http://www.w3.org/1999/xlink" width="12" height="12" viewBox="0 0 12 12" version="1.1">
<g id="surface1">
<path style="fill:none;stroke-width:2;stroke-linecap:butt;stroke-linejoin:miter;stroke:rgb(100%,100%,100%);stroke-opacity:1;stroke-miterlimit:4;" d="M 19 21 L 29 21 L 29 27 L 19 27 Z M 19 21 " transform="matrix(0.25,0,0,0.25,0,0)"/>
<path style="fill:none;stroke-width:2;stroke-linecap:butt;stroke-linejoin:miter;stroke:rgb(100%,100%,100%);stroke-opacity:1;stroke-miterlimit:4;" d="M 15 20.40625 C 15 20.40625 13.296875 15 8.15625 15 C 3.015625 15 2.96875 20 3 24 C 3.03125 28 3 33 8.140625 33 C 13.28125 33 15 27.59375 15 27.59375 Z M 15 20.40625 " transform="matrix(0.25,0,0,0.25,0,0)"/>
<path style="fill:none;stroke-width:2;stroke-linecap:butt;stroke-linejoin:miter;stroke:rgb(100%,100%,100%);stroke-opacity:1;stroke-miterlimit:4;" d="M 2.984375 20.03125 C 6.015625 17.546875 10.875 17.15625 15 20.03125 " transform="matrix(0.25,0,0,0.25,0,0)"/>
<path style="fill:none;stroke-width:2;stroke-linecap:butt;stroke-linejoin:miter;stroke:rgb(100%,100%,100%);stroke-opacity:1;stroke-miterlimit:4;" d="M 2.984375 27.875 C 6.015625 30.34375 10.875 30.734375 15 27.875 " transform="matrix(0.25,0,0,0.25,0,0)"/>
<path style="fill:none;stroke-width:2;stroke-linecap:butt;stroke-linejoin:miter;stroke:rgb(100%,100%,100%);stroke-opacity:1;stroke-miterlimit:4;" d="M 2.984375 23.15625 C 6.015625 20.6875 10.875 20.28125 15 23.15625 " transform="matrix(0.25,0,0,0.25,0,0)"/>
<path style="fill:none;stroke-width:2;stroke-linecap:butt;stroke-linejoin:miter;stroke:rgb(100%,100%,100%);stroke-opacity:1;stroke-miterlimit:4;" d="M 2.984375 24.65625 C 6.015625 27.125 10.875 27.515625 15 24.65625 " transform="matrix(0.25,0,0,0.25,0,0)"/>
<path style="fill:none;stroke-width:2;stroke-linecap:butt;stroke-linejoin:miter;stroke:rgb(100%,100%,100%);stroke-opacity:1;stroke-miterlimit:4;" d="M 33 20.40625 C 33 20.40625 34.703125 15 39.84375 15 C 44.984375 15 45.03125 20 44.984375 24 C 44.953125 28 44.984375 33 39.84375 33 C 34.703125 33 33 27.59375 33 27.59375 Z M 33 20.40625 " transform="matrix(0.25,0,0,0.25,0,0)"/>
<path style="fill:none;stroke-width:2;stroke-linecap:butt;stroke-linejoin:miter;stroke:rgb(100%,100%,100%);stroke-opacity:1;stroke-miterlimit:4;" d="M 45.015625 20.03125 C 41.984375 17.546875 37.125 17.15625 33 20.03125 " transform="matrix(0.25,0,0,0.25,0,0)"/>
<path style="fill:none;stroke-width:2;stroke-linecap:butt;stroke-linejoin:miter;stroke:rgb(100%,100%,100%);stroke-opacity:1;stroke-miterlimit:4;" d="M 45.015625 27.875 C 41.984375 30.34375 37.125 30.734375 33 27.875 " transform="matrix(0.25,0,0,0.25,0,0)"/>
<path style="fill:none;stroke-width:2;stroke-linecap:butt;stroke-linejoin:miter;stroke:rgb(100%,100%,100%);stroke-opacity:1;stroke-miterlimit:4;" d="M 45.015625 23.15625 C 41.984375 20.6875 37.125 20.28125 33 23.15625 " transform="matrix(0.25,0,0,0.25,0,0)"/>
<path style="fill:none;stroke-width:2;stroke-linecap:butt;stroke-linejoin:miter;stroke:rgb(100%,100%,100%);stroke-opacity:1;stroke-miterlimit:4;" d="M 45.015625 24.65625 C 41.984375 27.125 37.125 27.515625 33 24.65625 " transform="matrix(0.25,0,0,0.25,0,0)"/>
</g>
</svg>

<svg xmlns="http://www.w3.org/2000/svg" width="12" height="12" viewBox="0 0 48 48" version="1.1" id="svg8" style="fill:none"><path style="color:#000;clip-rule:nonzero;display:inline;overflow:visible;visibility:visible;opacity:1;isolation:auto;mix-blend-mode:normal;color-interpolation:sRGB;color-interpolation-filters:linearRGB;solid-color:#000;solid-opacity:1;vector-effect:none;fill:none;fill-opacity:1;fill-rule:nonzero;stroke:#fff;stroke-width:2;stroke-linecap:butt;stroke-linejoin:miter;stroke-miterlimit:4;stroke-dasharray:none;stroke-dashoffset:0;stroke-opacity:1;marker:none;paint-order:normal;color-rendering:auto;image-rendering:auto;shape-rendering:auto;text-rendering:auto;enable-background:accumulate" d="M19 21h10v6H19z" id="rect830"/><path style="fill:none;fill-opacity:1;fill-rule:evenodd;stroke:#fff;stroke-width:2;stroke-linecap:butt;stroke-linejoin:miter;stroke-miterlimit:4;stroke-dasharray:none;stroke-opacity:1" d="M15 20.4S13.29 15 8.15 15 2.97 20 3 24c.03 4 0 9 5.14 9S15 27.6 15 27.6z" id="path832-3"/><path style="fill:none;fill-rule:evenodd;stroke:#fff;stroke-width:2;stroke-linecap:butt;stroke-linejoin:miter;stroke-miterlimit:4;stroke-dasharray:none;stroke-opacity:1" d="M2.99 20.03c3.03-2.48 7.88-2.87 12.01 0" id="path872"/><path style="fill:none;fill-rule:evenodd;stroke:#fff;stroke-width:2;stroke-linecap:butt;stroke-linejoin:miter;stroke-miterlimit:4;stroke-dasharray:none;stroke-opacity:1" d="M2.99 27.87c3.03 2.48 7.88 2.87 12.01 0" id="path872-7"/><path style="fill:none;fill-rule:evenodd;stroke:#fff;stroke-width:2;stroke-linecap:butt;stroke-linejoin:miter;stroke-miterlimit:4;stroke-dasharray:none;stroke-opacity:1" d="M2.99 23.16c3.03-2.48 7.88-2.88 12.01 0" id="path872-5"/><path style="fill:none;fill-rule:evenodd;stroke:#fff;stroke-width:2;stroke-linecap:butt;stroke-linejoin:miter;stroke-miterlimit:4;stroke-dasharray:none;stroke-opacity:1" d="M2.99 24.65c3.03 2.48 7.88 2.87 12.01 0" id="path872-7-5"/><path style="fill:none;fill-opacity:1;fill-rule:evenodd;stroke:#fff;stroke-width:2;stroke-linecap:butt;stroke-linejoin:miter;stroke-miterlimit:4;stroke-dasharray:none;stroke-opacity:1" d="M33 20.4s1.71-5.4 6.85-5.4 5.18 5 5.14 9c-.03 4 0 9-5.14 9S33 27.6 33 27.6z" id="path832-3-6"/><path style="fill:none;fill-rule:evenodd;stroke:#fff;stroke-width:2;stroke-linecap:butt;stroke-linejoin:miter;stroke-miterlimit:4;stroke-dasharray:none;stroke-opacity:1" d="M45.01 20.03c-3.03-2.48-7.88-2.87-12.01 0" id="path872-2"/><path style="fill:none;fill-rule:evenodd;stroke:#fff;stroke-width:2;stroke-linecap:butt;stroke-linejoin:miter;stroke-miterlimit:4;stroke-dasharray:none;stroke-opacity:1" d="M45.01 27.87c-3.03 2.48-7.88 2.87-12.01 0" id="path872-7-9"/><path style="fill:none;fill-rule:evenodd;stroke:#fff;stroke-width:2;stroke-linecap:butt;stroke-linejoin:miter;stroke-miterlimit:4;stroke-dasharray:none;stroke-opacity:1" d="M45.01 23.16c-3.03-2.48-7.88-2.88-12.01 0" id="path872-5-1"/><path style="fill:none;fill-rule:evenodd;stroke:#fff;stroke-width:2;stroke-linecap:butt;stroke-linejoin:miter;stroke-miterlimit:4;stroke-dasharray:none;stroke-opacity:1" d="M45.01 24.65c-3.03 2.48-7.88 2.87-12.01 0" id="path872-7-5-2"/></svg>
